X: 563
P: Longways for as many as will
M: 6/4
L: 1/4
K: Dm
E |\
c |\
efg c2e | fga B2a | bag g3 | f3- f2a |\
fga def | efg ^cde | def efd | ^c3 A2a |\
bag aAa | bag aAa | bag f>ed | d3- d2 |]

